plugins/plugin-git/che-plugin-git-ext-git/src/main/resources/org/eclipse/che/ide/ext/git/client/controls/init.svg

<?xml version="1.0" encoding="UTF-8" standalone="no"?>
<!--

    Copyright (c) 2012-2016 Codenvy, S.A.
    All rights reserved. This program and the accompanying materials
    are made available under the terms of the Eclipse Public License v1.0
    which accompanies this distribution, and is available at
    http://www.eclipse.org/legal/epl-v10.html

    Contributors:
      Codenvy, S.A. - initial API and implementation

-->
<svg xmlns="http://www.w3.org/2000/svg" enable-background="new 0 0 32.001 32" xml:space="preserve" height="32px" width="32.001px" version="1.1" y="0px" x="0px" xmlns:cc="http://creativecommons.org/ns#" xmlns:dc="http://purl.org/dc/elements/1.1/" viewBox="0 0 32.001 32"><g id="_x31_8_1_" transform="matrix(1.875,0,0,1.875,-13.373757,-14.084747)"><g id="g5" clip-rule="evenodd" fill-rule="evenodd"><path id="_x3C_Path_x3E__33_" d="m18,8h-7.999c-1.099,0-2,0.9-2,2v12c0,1.101,0.899,2,2,2h6.428c-0.686-0.516-1.235-1.204-1.583-2h-4.845v-1h4.528c-0.065-0.323-0.1-0.657-0.1-1h-4.429v-8h8v3.208c0.452-0.135,0.933-0.208,1.429-0.208,0.193,0,0.384,0.011,0.571,0.033v-5.033c0-1.1-0.902-2-2-2zm0,2v1h-7.999v-1h7.999z" fill="#e0b91d"/><path id="_x3C_Path_x3E__32_" d="m19.429,16c2.209,0,4,1.791,4,4s-1.791,4-4,4-4-1.791-4-4,1.791-4,4-4zm-2,4.25c0,0.138,0.112,0.25,0.25,0.25h1.25v1.25c0,0.138,0.112,0.25,0.25,0.25h0.501c0.137,0,0.249-0.112,0.249-0.249l0.001-1.251h1.249c0.138,0,0.25-0.112,0.25-0.25v-0.501c0-0.137-0.112-0.249-0.25-0.249h-1.249v-1.25c-0.001-0.137-0.114-0.25-0.25-0.25h-0.501c-0.138,0-0.25,0.112-0.25,0.25v1.25h-1.25c-0.138,0-0.25,0.112-0.249,0.25l-0.001,0.5z" fill="#808080"/></g></g></svg>

<?xml version="1.0" encoding="utf-8"?>
<!--

    Copyright (c) 2012-2016 Codenvy, S.A.
    All rights reserved. This program and the accompanying materials
    are made available under the terms of the Eclipse Public License v1.0
    which accompanies this distribution, and is available at
    http://www.eclipse.org/legal/epl-v10.html

    Contributors:
      Codenvy, S.A. - initial API and implementation

-->
<!DOCTYPE svg PUBLIC "-//W3C//DTD SVG 1.1//EN" "http://www.w3.org/Graphics/SVG/1.1/DTD/svg11.dtd">
<svg version="1.1" xmlns="http://www.w3.org/2000/svg" xmlns:xlink="http://www.w3.org/1999/xlink" x="0px" y="0px"
	 width="32.001px" height="32px" viewBox="0 0 32.001 32" enable-background="new 0 0 32.001 32" xml:space="preserve">
<g id="_x31_8_1_">
	<g>
		<path id="_x3C_Path_x3E__33_" fill-rule="evenodd" clip-rule="evenodd" fill="#E0B91D" d="M18,8h-7.999c-1.099,0-2,0.9-2,2
			c0,2.833,0,9.167,0,12c0,1.101,0.899,2,2,2h6.428c-0.686-0.516-1.235-1.204-1.583-2h-4.845v-1h4.528c-0.065-0.323-0.1-0.657-0.1-1
			h-4.429v-8H18v3.208C18.452,15.073,18.933,15,19.429,15c0.193,0,0.384,0.011,0.571,0.033V10C20,8.9,19.098,8,18,8L18,8z M18,10v1
			h-7.999v-1H18z"/>
		<path id="_x3C_Path_x3E__32_" fill-rule="evenodd" clip-rule="evenodd" fill="#808080" d="M19.429,16c2.209,0,4,1.791,4,4
			s-1.791,4-4,4s-4-1.791-4-4S17.22,16,19.429,16L19.429,16z M17.429,20.25c0,0.138,0.112,0.25,0.25,0.25h1.25v1.25
			c0,0.138,0.112,0.25,0.25,0.25h0.501c0.137,0,0.249-0.112,0.249-0.249L19.93,20.5h1.249c0.138,0,0.25-0.112,0.25-0.25v-0.501
			c0-0.137-0.112-0.249-0.25-0.249H19.93v-1.25C19.929,18.113,19.816,18,19.68,18h-0.501c-0.138,0-0.25,0.112-0.25,0.25v1.25h-1.25
			c-0.138,0-0.25,0.112-0.249,0.25L17.429,20.25z"/>
	</g>
</g>
</svg>
